X: 9
T: Windfor Camp
%R: reel
B: "Twenty Four Country Dances for the Year 1799", Thomas Skillern, ed. p.5 #1
F: http://www.vwml.org/browse/browse-collections-dance-tune-books/browse-skillerns1799
Z: 2014 John Chambers <jc:trillian.mit.edu>
M: C
L: 1/8
K: C
|:\
cded cded | c2c2 c2z2 |\
dede dede | f2d2 d2z2 |\
e/f/g cc e/f/g cc | fdec fdec |
(ABcd) (Bcde) | Hc2G2 C2z2 ::\
G2(GA) BABc | dfdf ecc2 |\
G2(GA) BABc | dfec H[g2B2]"_D.C."z2 :|
%%begintext align
%% Half right and left, the same back again, lead
%% down the middle up again, Cast off and right
%% and left.
%%endtext
